;FLAVOR:Marlin
;TIME:4404
;Filament used: 2.72382m
;Layer height: 0.1
;MINX:64.687
;MINY:27.132
;MINZ:0.3
;MAXX:137.477
;MAXY:73.017
;MAXZ:6.8
;Generated with Cura_SteamEngine 4.11.0
M140 S60
M105
M190 S60
M104 S200
M105
M109 S200
M82 ;absolute extrusion mode
G21 ;metric values
 G90 ;absolute positioning
 M82 ;set extruder to absolute mode
 M107 ;start with the fan off
 G28 X0 Y0 ;move X/Y to min endstops
 G28 Z0 ;move Z to min endstops
 G1 Z15.0 F120 ;move the platform down 15mm
 G92 E0 ;zero the extruded length
 G1 F200 E6 ;extrude 6 mm of feed stock
 G92 E0 ;zero the extruded length again
 G1 F120 
 ;Put printing message on LCD screen
 M117 Printing...
G92 E0
G92 E0
G1 F1500 E-6.5
;LAYER_COUNT:66
;LAYER:0
M107
G0 F3600 X65.856 Y33.342 Z0.3
;TYPE:SKIRT
G1 F1500 E0
G1 F1800 X65.957 Y33.159 E0.01043
G1 X66.426 Y32.412 E0.05443
G1 X66.568 Y32.212 E0.06667
G1 X67.138 Y31.502 E0.11209
G1 X67.277 Y31.348 E0.12244
G1 X67.863 Y30.764 E0.16372
G1 X68.045 Y30.601 E0.17591
G1 X68.812 Y29.996 E0.22465
G1 X69.013 Y29.857 E0.23684
G1 X69.906 Y29.324 E0.28872
G1 X70.153 Y29.198 E0.30256
G1 X71.059 Y28.805 E0.35183
G1 X71.29 Y28.722 E0.36407
G1 X72.216 Y28.453 E0.41218
G1 X72.456 Y28.399 E0.42445
G1 X73.398 Y28.247 E0.47206
G1 X73.64 Y28.223 E0.48419
G1 X74.254 Y28.187 E0.51488
G1 X127.048 Y27.132 E3.1493
G1 X127.753 Y27.149 E3.18449
G1 X127.994 Y27.166 E3.19654
G1 X129.121 Y27.329 E3.25335
G1 X129.43 Y27.397 E3.26914
G1 X130.479 Y27.706 E3.3237
G1 X130.707 Y27.791 E3.33583
G1 X131.559 Y28.169 E3.38234
G1 X131.776 Y28.281 E3.39452
G1 X132.591 Y28.766 E3.44184
G1 X132.795 Y28.905 E3.45415
G1 X133.488 Y29.437 E3.49774
G1 X133.645 Y29.572 E3.50807
G1 X134.36 Y30.271 E3.55795
G1 X134.547 Y30.479 E3.57191
G1 X135.211 Y31.329 E3.62572
G1 X135.367 Y31.56 E3.63963
G1 X135.885 Y32.448 E3.69092
G1 X136.009 Y32.697 E3.70479
G1 X136.443 Y33.757 E3.76194
G1 X136.53 Y34.024 E3.77595
G1 X136.779 Y34.998 E3.8261
G1 X136.824 Y35.237 E3.83824
G1 X136.946 Y36.237 E3.8885
G1 X136.973 Y36.804 E3.91682
G1 X137.105 Y43.341 E4.24302
G1 X137.081 Y44.13 E4.2824
G1 X137.011 Y44.658 E4.30897
G1 X137.043 Y44.797 E4.31609
G1 X137.139 Y45.581 E4.35549
G1 X137.157 Y45.982 E4.37552
G1 X137.292 Y52.72 E4.71175
G1 X137.268 Y53.509 E4.75113
G1 X137.199 Y54.032 E4.77745
G1 X137.231 Y54.175 E4.78476
G1 X137.327 Y54.959 E4.82416
G1 X137.345 Y55.362 E4.84429
G1 X137.477 Y62.04 E5.17752
G1 X137.458 Y62.766 E5.21375
G1 X137.44 Y63.011 E5.22601
G1 X137.307 Y63.981 E5.27486
G1 X137.259 Y64.219 E5.28697
G1 X137.025 Y65.105 E5.33269
G1 X136.949 Y65.337 E5.34487
G1 X136.582 Y66.256 E5.39424
G1 X136.477 Y66.477 E5.40644
G1 X136.046 Y67.264 E5.45121
G1 X135.936 Y67.44 E5.46156
G1 X135.422 Y68.167 E5.50598
G1 X135.269 Y68.359 E5.51823
G1 X134.869 Y68.823 E5.5488
G1 X134.798 Y68.899 E5.55398
G1 X134.328 Y69.361 E5.58686
G1 X134.172 Y69.502 E5.59736
G1 X133.371 Y70.135 E5.64829
G1 X133.113 Y70.313 E5.66393
G1 X132.15 Y70.881 E5.71971
G1 X131.9 Y71.005 E5.73363
G1 X130.978 Y71.391 E5.7835
G1 X130.778 Y71.46 E5.79405
G1 X129.866 Y71.713 E5.84127
G1 X129.595 Y71.771 E5.8551
G1 X128.663 Y71.913 E5.90213
G1 X128.452 Y71.932 E5.9127
G1 X127.908 Y71.961 E5.93988
G1 X75.117 Y73.017 E8.57416
G1 X74.36 Y72.996 E8.61194
G1 X74.114 Y72.977 E8.62425
G1 X73.228 Y72.857 E8.66886
G1 X73.022 Y72.817 E8.67933
G1 X72.197 Y72.61 E8.72176
G1 X71.965 Y72.538 E8.73388
G1 X71.003 Y72.168 E8.7853
G1 X70.75 Y72.051 E8.79921
G1 X69.822 Y71.542 E8.85201
G1 X69.614 Y71.409 E8.86433
G1 X68.889 Y70.885 E8.90896
G1 X68.7 Y70.731 E8.92112
G1 X67.932 Y70.014 E8.97354
G1 X67.742 Y69.811 E8.98741
G1 X67.135 Y69.078 E9.03489
G1 X67.011 Y68.908 E9.04539
G1 X66.483 Y68.078 E9.09447
G1 X66.349 Y67.835 E9.10831
G1 X65.924 Y66.932 E9.1581
G1 X65.834 Y66.704 E9.17033
G1 X65.559 Y65.876 E9.21386
G1 X65.496 Y65.643 E9.2259
G1 X65.288 Y64.59 E9.27945
G1 X65.257 Y64.346 E9.29172
G1 X65.204 Y63.741 E9.32202
G1 X65.192 Y63.415 E9.3383
G1 X64.687 Y38.077 E10.60267
G1 X64.725 Y37.138 E10.64955
G1 X64.753 Y36.861 E10.66344
G1 X64.935 Y35.799 E10.7172
G1 X65.001 Y35.528 E10.73111
G1 X65.344 Y34.458 E10.78717
G1 X65.45 Y34.195 E10.80132
G1 X65.856 Y33.342 E10.84845
G0 F3600 X66.206 Y33.535
G1 F1800 X66.307 Y33.352 E10.85888
G1 X66.752 Y32.644 E10.9006
G1 X66.894 Y32.444 E10.91283
G1 X67.435 Y31.77 E10.95595
G1 X67.574 Y31.616 E10.9663
G1 X68.13 Y31.062 E11.00546
G1 X68.312 Y30.899 E11.01765
G1 X69.04 Y30.325 E11.0639
G1 X69.241 Y30.186 E11.07609
G1 X70.087 Y29.68 E11.12528
G1 X70.334 Y29.554 E11.13911
G1 X71.195 Y29.182 E11.1859
G1 X71.426 Y29.099 E11.19815
G1 X72.304 Y28.843 E11.24378
G1 X72.544 Y28.789 E11.25605
G1 X73.438 Y28.645 E11.30123
G1 X73.68 Y28.621 E11.31336
G1 X74.262 Y28.586 E11.34245
G1 X127.056 Y27.531 E13.97688
G1 X127.725 Y27.548 E14.01026
G1 X127.966 Y27.565 E14.02232
G1 X129.035 Y27.72 E14.07621
G1 X129.344 Y27.788 E14.09199
G1 X130.339 Y28.081 E14.14374
G1 X130.567 Y28.166 E14.15588
G1 X131.376 Y28.524 E14.20002
G1 X131.593 Y28.636 E14.2122
G1 X132.366 Y29.097 E14.2571
G1 X132.57 Y29.236 E14.26942
G1 X133.228 Y29.74 E14.31077
G1 X133.385 Y29.875 E14.3211
G1 X134.063 Y30.539 E14.36844
G1 X134.25 Y30.747 E14.3824
G1 X134.88 Y31.553 E14.43344
G1 X135.036 Y31.784 E14.44734
G1 X135.527 Y32.626 E14.49597
G1 X135.651 Y32.875 E14.50985
G1 X136.063 Y33.881 E14.56408
G1 X136.15 Y34.148 E14.57809
G1 X136.386 Y35.072 E14.62567
G1 X136.431 Y35.311 E14.63781
G1 X136.547 Y36.259 E14.68545
G1 X136.573 Y36.812 E14.71307
G1 X136.705 Y43.349 E15.03927
G1 X136.681 Y44.117 E15.07761
G1 X136.604 Y44.679 E15.10591
G1 X136.692 Y45.142 E15.12942
G1 X136.758 Y45.99 E15.17186
G1 X136.893 Y52.728 E15.50808
G1 X136.868 Y53.497 E15.54647
G1 X136.792 Y54.054 E15.57452
G1 X136.88 Y54.52 E15.59817
G1 X136.946 Y55.37 E15.64071
G1 X137.078 Y62.048 E15.97394
G1 X137.059 Y62.736 E16.00828
G1 X137.041 Y62.981 E16.02053
G1 X136.915 Y63.902 E16.06691
G1 X136.867 Y64.14 E16.07902
G1 X136.645 Y64.981 E16.12242
G1 X136.569 Y65.213 E16.1346
G1 X136.221 Y66.085 E16.18144
G1 X136.116 Y66.306 E16.19365
G1 X135.707 Y67.052 E16.23609
G1 X135.597 Y67.228 E16.24645
G1 X135.109 Y67.918 E16.28861
G1 X134.956 Y68.11 E16.30086
G1 X134.576 Y68.55 E16.32986
G1 X134.505 Y68.626 E16.33505
G1 X134.06 Y69.064 E16.3662
G1 X133.904 Y69.205 E16.37669
G1 X133.144 Y69.806 E16.42503
G1 X132.886 Y69.984 E16.44067
G1 X131.972 Y70.522 E16.49358
G1 X131.722 Y70.646 E16.50751
G1 X130.847 Y71.012 E16.55483
G1 X130.647 Y71.081 E16.56538
G1 X129.783 Y71.322 E16.61013
G1 X129.512 Y71.38 E16.62396
G1 X128.627 Y71.514 E16.66861
G1 X128.416 Y71.533 E16.67918
G1 X127.9 Y71.562 E16.70497
G1 X75.109 Y72.618 E19.33925
G1 X74.391 Y72.597 E19.37508
G1 X74.145 Y72.578 E19.38739
G1 X73.304 Y72.464 E19.42974
G1 X73.098 Y72.424 E19.4402
G1 X72.316 Y72.227 E19.48044
G1 X72.084 Y72.155 E19.49256
G1 X71.171 Y71.805 E19.54134
G1 X70.918 Y71.688 E19.55525
G1 X70.038 Y71.205 E19.60533
G1 X69.83 Y71.072 E19.61764
G1 X69.142 Y70.575 E19.65999
G1 X68.953 Y70.421 E19.67215
G1 X68.224 Y69.741 E19.72189
G1 X68.034 Y69.538 E19.73576
G1 X67.458 Y68.842 E19.78083
G1 X67.334 Y68.672 E19.79133
G1 X66.833 Y67.884 E19.83792
G1 X66.699 Y67.641 E19.85176
G1 X66.296 Y66.785 E19.89896
G1 X66.206 Y66.557 E19.91119
G1 X65.946 Y65.771 E19.95249
G1 X65.883 Y65.538 E19.96454
G1 X65.685 Y64.54 E20.0153
G1 X65.654 Y64.296 E20.02757
G1 X65.604 Y63.722 E20.05631
G1 X65.591 Y63.407 E20.07204
G1 X65.086 Y38.069 E21.33641
G1 X65.123 Y37.178 E21.3809
G1 X65.151 Y36.901 E21.39479
G1 X65.323 Y35.894 E21.44576
G1 X65.389 Y35.623 E21.45967
G1 X65.715 Y34.608 E21.51286
G1 X65.821 Y34.345 E21.52701
G1 X66.206 Y33.535 E21.57175
G0 F3600 X66.556 Y33.729
G1 F1800 X66.657 Y33.546 E21.58218
G1 X67.078 Y32.876 E21.62166
G1 X67.22 Y32.676 E21.63389
G1 X67.732 Y32.038 E21.67471
G1 X67.871 Y31.884 E21.68506
G1 X68.397 Y31.36 E21.7221
G1 X68.579 Y31.197 E21.73429
G1 X69.268 Y30.654 E21.77805
G1 X69.469 Y30.515 E21.79025
G1 X70.269 Y30.036 E21.83677
G1 X70.516 Y29.91 E21.8506
G1 X71.33 Y29.558 E21.89484
G1 X71.561 Y29.475 E21.90709
G1 X72.391 Y29.234 E21.95021
G1 X72.631 Y29.18 E21.96248
G1 X73.477 Y29.043 E22.00524
G1 X73.719 Y29.019 E22.01737
G1 X74.27 Y28.986 E22.04491
G1 X127.064 Y27.931 E24.67934
G1 X127.697 Y27.947 E24.71093
G1 X127.938 Y27.964 E24.72298
G1 X128.949 Y28.111 E24.77395
G1 X129.258 Y28.179 E24.78974
G1 X130.199 Y28.456 E24.83868
G1 X130.427 Y28.541 E24.85082
G1 X131.193 Y28.88 E24.89261
G1 X131.41 Y28.992 E24.90479
G1 X132.141 Y29.427 E24.94723
G1 X132.345 Y29.566 E24.95954
G1 X132.967 Y30.043 E24.99865
G1 X133.124 Y30.178 E25.00898
G1 X133.766 Y30.806 E25.05379
G1 X133.953 Y31.014 E25.06774
G1 X134.548 Y31.776 E25.11597
G1 X134.704 Y32.007 E25.12988
G1 X135.169 Y32.805 E25.17596
G1 X135.293 Y33.054 E25.18984
G1 X135.683 Y34.005 E25.24112
G1 X135.77 Y34.272 E25.25513
G1 X135.993 Y35.146 E25.30013
G1 X136.038 Y35.385 E25.31226
G1 X136.148 Y36.282 E25.35735
G1 X136.174 Y36.82 E25.38422
G1 X136.306 Y43.357 E25.71042
G1 X136.281 Y44.104 E25.74771
G1 X136.2 Y44.673 E25.77638
G1 X136.218 Y44.741 E25.77989
G1 X136.328 Y45.481 E25.81722
G1 X136.358 Y45.998 E25.84305
G1 X136.493 Y52.736 E26.17928
G1 X136.468 Y53.483 E26.21657
G1 X136.388 Y54.049 E26.24509
G1 X136.406 Y54.119 E26.24869
G1 X136.516 Y54.859 E26.28602
G1 X136.546 Y55.378 E26.31195
G1 X136.678 Y62.056 E26.64519
G1 X136.66 Y62.707 E26.67768
G1 X136.642 Y62.952 E26.68993
G1 X136.523 Y63.823 E26.73379
G1 X136.475 Y64.061 E26.7459
G1 X136.265 Y64.856 E26.78693
G1 X136.189 Y65.088 E26.79911
G1 X135.86 Y65.913 E26.84342
G1 X135.755 Y66.134 E26.85562
G1 X135.368 Y66.84 E26.89579
G1 X135.258 Y67.016 E26.90615
G1 X134.796 Y67.668 E26.94601
G1 X134.643 Y67.86 E26.95826
G1 X134.284 Y68.277 E26.98571
G1 X134.213 Y68.353 E26.9909
G1 X133.792 Y68.767 E27.02036
G1 X133.636 Y68.908 E27.03085
G1 X132.917 Y69.477 E27.0766
G1 X132.659 Y69.655 E27.09223
G1 X131.794 Y70.164 E27.14231
G1 X131.544 Y70.288 E27.15623
G1 X130.717 Y70.634 E27.20095
G1 X130.517 Y70.703 E27.21151
G1 X129.699 Y70.931 E27.25387
G1 X129.428 Y70.989 E27.2677
G1 X128.591 Y71.116 E27.30994
G1 X127.892 Y71.162 E27.34488
G1 X75.101 Y72.218 E29.97917
G1 X74.422 Y72.198 E30.01306
G1 X74.176 Y72.179 E30.02537
G1 X73.381 Y72.072 E30.06539
G1 X73.175 Y72.032 E30.07585
G1 X72.434 Y71.845 E30.11398
G1 X72.202 Y71.773 E30.1261
G1 X71.339 Y71.442 E30.17222
G1 X71.086 Y71.325 E30.18612
G1 X70.253 Y70.868 E30.23352
G1 X70.045 Y70.735 E30.24584
G1 X69.394 Y70.265 E30.2859
G1 X69.205 Y70.111 E30.29806
G1 X68.516 Y69.467 E30.34511
G1 X68.326 Y69.264 E30.35899
G1 X67.782 Y68.606 E30.40158
G1 X67.658 Y68.436 E30.41208
G1 X67.183 Y67.691 E30.45616
G1 X67.049 Y67.448 E30.47
G1 X66.668 Y66.638 E30.51466
G1 X66.578 Y66.41 E30.52689
G1 X66.332 Y65.667 E30.56594
G1 X66.269 Y65.434 E30.57798
G1 X66.082 Y64.489 E30.62604
G1 X66.051 Y64.245 E30.63831
G1 X66.003 Y63.702 E30.66551
G1 X65.991 Y63.399 E30.68064
G1 X65.486 Y38.061 E31.945
G1 X65.52 Y37.218 E31.9871
G1 X65.548 Y36.941 E32.00099
G1 X65.712 Y35.989 E32.04918
G1 X65.778 Y35.718 E32.0631
G1 X66.086 Y34.757 E32.11344
G1 X66.192 Y34.494 E32.12759
G1 X66.556 Y33.729 E32.16986
G0 F3600 X66.907 Y33.922
G1 F1800 X67.008 Y33.739 E32.18028
G1 X67.404 Y33.107 E32.21749
G1 X67.546 Y32.907 E32.22973
G1 X68.029 Y32.306 E32.2682
G1 X68.168 Y32.152 E32.27855
G1 X68.664 Y31.658 E32.31347
G1 X68.846 Y31.495 E32.32566
G1 X69.495 Y30.983 E32.3669
G1 X69.696 Y30.844 E32.3791
G1 X70.451 Y30.393 E32.42297
G1 X70.698 Y30.267 E32.4368
G1 X71.465 Y29.935 E32.4785
G1 X71.696 Y29.852 E32.49075
G1 X72.479 Y29.624 E32.53143
G1 X72.719 Y29.57 E32.54371
G1 X73.517 Y29.441 E32.58404
G1 X73.759 Y29.417 E32.59617
G1 X74.278 Y29.386 E32.62211
G1 X127.072 Y28.331 E35.25654
G1 X127.668 Y28.346 E35.28628
G1 X127.909 Y28.363 E35.29833
G1 X128.863 Y28.501 E35.34643
G1 X129.172 Y28.569 E35.36221
G1 X130.06 Y28.831 E35.4084
G1 X130.288 Y28.916 E35.42054
G1 X131.009 Y29.235 E35.45987
G1 X131.226 Y29.347 E35.47206
G1 X131.915 Y29.758 E35.51208
G1 X132.119 Y29.897 E35.5244
G1 X132.706 Y30.347 E35.5613
G1 X132.863 Y30.482 E35.57163
G1 X133.468 Y31.073 E35.61383
G1 X133.655 Y31.281 E35.62778
G1 X134.217 Y32 E35.67331
G1 X134.373 Y32.231 E35.68721
G1 X134.811 Y32.983 E35.73063
G1 X134.935 Y33.232 E35.74451
G1 X135.302 Y34.129 E35.79286
G1 X135.389 Y34.396 E35.80687
G1 X135.6 Y35.22 E35.84931
G1 X135.645 Y35.459 E35.86144
G1 X135.748 Y36.305 E35.90396
G1 X135.774 Y36.828 E35.93009
G1 X135.906 Y43.365 E36.25628
G1 X135.88 Y44.091 E36.29253
G1 X135.791 Y44.702 E36.32333
G1 X135.875 Y45.091 E36.34319
G1 X135.958 Y46.006 E36.38902
G1 X136.093 Y52.744 E36.72525
G1 X136.067 Y53.47 E36.76149
G1 X135.978 Y54.078 E36.79215
G1 X136.063 Y54.469 E36.81211
G1 X136.146 Y55.386 E36.85805
G1 X136.278 Y62.064 E37.19128
G1 X136.261 Y62.678 E37.22193
G1 X136.243 Y62.923 E37.23418
G1 X136.131 Y63.744 E37.27552
G1 X136.083 Y63.982 E37.28763
G1 X135.885 Y64.732 E37.32633
G1 X135.809 Y64.964 E37.33851
G1 X135.498 Y65.741 E37.38027
G1 X135.393 Y65.962 E37.39248
G1 X135.029 Y66.628 E37.43034
G1 X134.919 Y66.804 E37.4407
G1 X134.484 Y67.419 E37.47828
G1 X134.331 Y67.611 E37.49053
G1 X133.992 Y68.004 E37.51642
G1 X133.921 Y68.08 E37.52161
G1 X133.524 Y68.47 E37.54937
G1 X133.368 Y68.611 E37.55986
G1 X132.69 Y69.148 E37.60301
G1 X132.432 Y69.326 E37.61865
G1 X131.617 Y69.806 E37.66584
G1 X131.367 Y69.93 E37.67976
G1 X130.586 Y70.256 E37.72199
G1 X130.386 Y70.325 E37.73254
G1 X129.615 Y70.54 E37.77247
G1 X129.344 Y70.598 E37.7863
G1 X128.555 Y70.717 E37.82611
G1 X127.884 Y70.762 E37.85966
G1 X75.093 Y71.818 E40.49394
G1 X74.453 Y71.799 E40.52588
G1 X74.207 Y71.78 E40.53819
G1 X73.457 Y71.679 E40.57595
G1 X73.251 Y71.639 E40.58642
G1 X72.553 Y71.463 E40.62233
G1 X72.321 Y71.391 E40.63445
G1 X71.507 Y71.078 E40.67796
G1 X71.254 Y70.961 E40.69187
G1 X70.469 Y70.531 E40.73652
G1 X70.261 Y70.398 E40.74884
G1 X69.647 Y69.955 E40.78661
G1 X69.458 Y69.801 E40.79877
G1 X68.808 Y69.194 E40.84314
G1 X68.618 Y68.991 E40.85702
G1 X68.105 Y68.37 E40.8972
G1 X67.981 Y68.2 E40.9077
G1 X67.533 Y67.498 E40.94925
G1 X67.399 Y67.255 E40.96309
G1 X67.04 Y66.491 E41.00521
G1 X66.95 Y66.263 E41.01744
G1 X66.718 Y65.563 E41.05423
G1 X66.655 Y65.33 E41.06627
G1 X66.479 Y64.439 E41.11158
G1 X66.448 Y64.195 E41.12385
G1 X66.403 Y63.683 E41.14949
G1 X66.391 Y63.392 E41.16402
G1 X65.886 Y38.054 E42.42839
G1 X65.918 Y37.258 E42.46814
G1 X65.946 Y36.981 E42.48203
G1 X66.1 Y36.083 E42.52748
G1 X66.166 Y35.812 E42.5414
G1 X66.457 Y34.907 E42.58883
G1 X66.563 Y34.644 E42.60297
G1 X66.907 Y33.922 E42.64287
G0 F3600 X67.257 Y34.115
G1 F1800 X67.358 Y33.932 E42.6533
G1 X67.731 Y33.339 E42.68825
G1 X67.873 Y33.139 E42.70049
G1 X68.326 Y32.574 E42.73662
G1 X68.465 Y32.42 E42.74697
G1 X68.931 Y31.955 E42.77981
G1 X69.113 Y31.792 E42.792
G1 X69.723 Y31.312 E42.83073
G1 X69.924 Y31.173 E42.84292
G1 X70.633 Y30.749 E42.88413
G1 X70.88 Y30.623 E42.89797
G1 X71.601 Y30.311 E42.93716
G1 X71.832 Y30.228 E42.94941
G1 X72.567 Y30.014 E42.9876
G1 X72.807 Y29.96 E42.99987
G1 X73.556 Y29.839 E43.03772
G1 X74.286 Y29.786 E43.07424
G1 X127.08 Y28.731 E45.70867
G1 X127.64 Y28.745 E45.73662
G1 X127.881 Y28.762 E45.74867
G1 X128.778 Y28.892 E45.79389
G1 X129.087 Y28.96 E45.80967
G1 X129.92 Y29.206 E45.85301
G1 X130.148 Y29.291 E45.86515
G1 X130.826 Y29.591 E45.90214
G1 X131.043 Y29.703 E45.91432
G1 X131.69 Y30.088 E45.95188
G1 X131.894 Y30.227 E45.9642
G1 X132.445 Y30.65 E45.99885
G1 X132.602 Y30.785 E46.00918
G1 X133.171 Y31.341 E46.04887
G1 X133.358 Y31.549 E46.06283
G1 X133.885 Y32.224 E46.10555
G1 X134.041 Y32.455 E46.11946
G1 X134.453 Y33.161 E46.16024
G1 X134.577 Y33.41 E46.17412
G1 X134.922 Y34.253 E46.21956
G1 X135.009 Y34.52 E46.23357
G1 X135.207 Y35.294 E46.27343
G1 X135.252 Y35.533 E46.28556
G1 X135.349 Y36.328 E46.32552
G1 X135.374 Y36.836 E46.35089
G1 X135.506 Y43.373 E46.67709
G1 X135.48 Y44.076 E46.71219
G1 X135.386 Y44.697 E46.74352
G1 X135.399 Y44.74 E46.74576
G1 X135.519 Y45.433 E46.78085
G1 X135.558 Y46.014 E46.8099
G1 X135.693 Y52.752 E47.14613
G1 X135.667 Y53.455 E47.18123
G1 X135.573 Y54.071 E47.21232
G1 X135.587 Y54.118 E47.21476
G1 X135.707 Y54.811 E47.24985
